X: 221
T: Hollow Drum
%R: march, reel
Z: 2017 John Chambers <jc:trillian.mit.edu>
B: John Treat - "Gamut for the Fifes", 1779, p.22 #1
F: https://archive.org/details/GamutFortheFifes
M: 2/4
L: 1/16
K: G
% - - - - - - - - - - - - - - - - - - - - - - - - -
|:\
GGGG G3B | A3F G4 | BBBB B3d | c3A B4 |\
d3ed2g2 | d3ed2B2 | c2A2G2F2 | G3A G4 :|
|:\
b2g2e2fg | a2f2d2ef | g2e2d2c2 | d3e d2d2 |\
b2g2e2fg | a2f2d2ef | g2e2d2c2 | d3e dcBA :|
% - - - - - - - - - - - - - - - - - - - - - - - - -
